X: 1
T:Paddy Fahy's
C:Paddy Fahy
R:reel
H:Also played in G, #755
Z:id:hn-reel-533
M:C|
K:D
dcAG EFGE|A2~A2 (3Bcd cA|dcAB cdef|gfge dfec|
d2cB GABG|A2~A2 cdec|dcAB cded|cAGE DEFA:|
|:d2af gefd|dcAG EFGB|Ad~d2 addc|dcAG Ad~d2|
d2ef geed|ceAB =cBcd|eaaf gfgb|aged cdec:|
